static/Contact.svg

<svg width="18" height="18" viewBox="0 0 18 18" fill="none" xmlns="http://www.w3.org/2000/svg">
<g id="Group 151">
<path id="Vector" d="M2.10738 8.15924H2.10668C0.943191 8.15924 0 9.10129 0 10.2634V13.093C0 14.255 0.943191 15.1971 2.10668 15.1971H2.10738C3.27087 15.1971 4.21406 14.255 4.21406 13.093V10.2634C4.21406 9.10129 3.27087 8.15924 2.10738 8.15924Z" fill="#BBC7D3"/>
<path id="Vector_2" d="M6.18641 10.9853C6.5802 10.9853 6.89942 10.6664 6.89942 10.2731C6.89942 9.87982 6.5802 9.56097 6.18641 9.56097C5.79262 9.56097 5.47339 9.87982 5.47339 10.2731C5.47339 10.6664 5.79262 10.9853 6.18641 10.9853Z" fill="#BBC7D3"/>
<path id="Vector_3" d="M9.00013 10.9853C9.39392 10.9853 9.71315 10.6664 9.71315 10.2731C9.71315 9.87982 9.39392 9.56097 9.00013 9.56097C8.60634 9.56097 8.28711 9.87982 8.28711 10.2731C8.28711 10.6664 8.60634 10.9853 9.00013 10.9853Z" fill="#BBC7D3"/>
<path id="Vector_4" d="M11.8243 10.9853C12.2181 10.9853 12.5374 10.6664 12.5374 10.2731C12.5374 9.87982 12.2181 9.56097 11.8243 9.56097C11.4306 9.56097 11.1113 9.87982 11.1113 10.2731C11.1113 10.6664 11.4306 10.9853 11.8243 10.9853Z" fill="#BBC7D3"/>
<path id="Vector_5" d="M9.00539 18.0001C10.1685 18.0001 11.1114 17.0584 11.1114 15.8967C11.1114 14.735 10.1685 13.7933 9.00539 13.7933C7.84229 13.7933 6.89941 14.735 6.89941 15.8967C6.89941 17.0584 7.84229 18.0001 9.00539 18.0001Z" fill="#BBC7D3"/>
<path id="Vector_6" d="M4.11529 6.3131C4.11529 3.61635 6.30432 1.42928 9.00506 1.42928C11.7058 1.42928 13.8948 3.61565 13.8948 6.3131C13.8948 6.41082 13.892 6.50784 13.8857 6.60415C13.866 6.93175 14.1074 7.21647 14.4326 7.26217L14.5924 7.28467C14.9563 7.33528 15.2913 7.06884 15.3138 6.70257C15.3138 6.70046 15.3138 6.69765 15.3138 6.69554C15.544 2.89506 12.3189 -0.270601 8.51798 0.0183365C5.25485 0.267203 2.68433 2.98997 2.68433 6.3131C2.68433 6.4066 2.68644 6.50011 2.69066 6.5929C2.70896 7.01471 3.08694 7.32896 3.50504 7.27061C3.87105 7.21929 4.13781 6.89871 4.12092 6.52963C4.1174 6.45792 4.11599 6.38551 4.11599 6.3131H4.11529Z" fill="#BBC7D3"/>
<path id="Vector_7" d="M15.893 8.15924C15.6473 8.15924 15.4122 8.20142 15.1926 8.27875V14.5201C15.1926 14.7043 15.1778 14.8857 15.1504 15.0621C15.3813 15.1493 15.6311 15.1971 15.893 15.1971C17.0565 15.1971 17.9996 14.2551 17.9996 13.093V10.2641C17.9996 9.10198 17.0565 8.15994 15.893 8.15994V8.15924Z" fill="#BBC7D3"/>
<path id="Vector_8" d="M15.1934 8.27863C14.3741 8.56686 13.7864 9.3465 13.7864 10.2632V13.0929C13.7864 13.9941 14.3537 14.7625 15.1512 15.062C15.1786 14.8855 15.1934 14.7042 15.1934 14.52V8.27863Z" fill="#BBC7D3"/>
<path id="Vector_9" d="M13.7861 10.2632V14.4904C13.7861 15.6546 12.8408 16.5988 11.6752 16.5988H8.76123V17.9999H11.7083C13.4483 17.9999 14.8898 16.7267 15.1502 15.062C15.1777 14.8855 15.1925 14.7042 15.1925 14.52V8.27863C14.3732 8.56686 13.7854 9.3465 13.7854 10.2632H13.7861Z" fill="#BBC7D3"/>
</g>
</svg>

<svg xmlns="http://www.w3.org/2000/svg" width="18" height="18" fill="none"><g fill="#BBC7D3"><path d="M2.107 8.16A2.105 2.105 0 0 0 0 10.262v2.83c0 1.162.943 2.104 2.107 2.104a2.105 2.105 0 0 0 2.107-2.104v-2.83A2.105 2.105 0 0 0 2.107 8.16ZM6.186 10.985a.713.713 0 1 0 .001-1.425.713.713 0 0 0 0 1.425ZM9 10.985A.713.713 0 1 0 9 9.56a.713.713 0 0 0 0 1.425ZM11.824 10.985a.713.713 0 1 0 .001-1.425.713.713 0 0 0 0 1.425ZM9.005 18a2.105 2.105 0 0 0 2.106-2.103 2.105 2.105 0 0 0-2.106-2.104A2.105 2.105 0 0 0 6.9 15.897C6.9 17.058 7.842 18 9.005 18ZM4.115 6.313a4.887 4.887 0 0 1 4.89-4.884 4.887 4.887 0 0 1 4.88 5.175.631.631 0 0 0 .548.658l.16.023a.633.633 0 0 0 .72-.582v-.007c.231-3.8-2.994-6.967-6.795-6.678a6.317 6.317 0 0 0-5.827 6.575.716.716 0 1 0 1.43-.063 4.424 4.424 0 0 1-.005-.217ZM15.893 8.16c-.246 0-.48.041-.7.119v6.241c0 .184-.015.366-.043.542a2.105 2.105 0 0 0 2.85-1.97v-2.828a2.105 2.105 0 0 0-2.107-2.104Z"/><path d="M15.193 8.279a2.105 2.105 0 0 0-1.407 1.984v2.83c0 .901.568 1.67 1.365 1.969.028-.176.042-.358.042-.542V8.279Z"/><path d="M13.786 10.263v4.227a2.11 2.11 0 0 1-2.11 2.109H8.76v1.4h2.947a3.483 3.483 0 0 0 3.485-3.479V8.279a2.105 2.105 0 0 0-1.408 1.984h.001Z"/></g></svg>
